X:1
T:Ich Will Dich Lieben, 98.98.86
T:Ich Will Dich Lieben, 98.98.86
T:Harmonischer Liederschatz (Frankfur
T:Public Domain Courtesy of the Cyber Hymnal™
C:Harmonischer Liederschatz (Frankfur
Z:Public Domain
Z:Courtesy of the Cyber Hymnal™
%%score ( 1 2 ) ( 3 4 )
L:1/8
Q:1/4=110
M:4/4
K:Eb
V:1 treble 
V:2 treble 
V:3 bass 
V:4 bass 
V:1
 [B,E]4 [EG]2 [FB]2 | [Ee]2 [EB]2 [Ec]2 [DB]2 | A4 [EG]2 [DF]2 | [EG]2 [E=A]2 [DB]2 [Ge]2 | %4
 [Fd]2 [Fc]2 [DB]4 | [B,E]4 [EG]2 [FB]2 | [Ee]2 [EB]2 [Ec]2 [DB]2 | A4 [EG]2 [DF]2 | %8
 [EG]2 [E=A]2 [DB]2 [Ge]2 | [Fd]2 [Fc]2 [DB]4 | z2 [DF]2 [CF]2 [DF]2 | [EG]2 F2 [EG]2 [EA]2 | %12
 [DF]2 [EB]2 [CE]2 [CA]2 | [EG]4 [DF]4 | [B,E]8 |] %15
V:2
 x8 | x8 | (C2 D2) x4 | x8 | x8 | x8 | x8 | (C2 D2) x4 | x8 | x8 | x8 | x2 F2 x4 | x8 | x8 | x8 |] %15
V:3
 [E,G,]4 [E,B,]2 [D,B,]2 | [C,G,]2 [G,,B,]2 [A,,A,]2 [B,,F,]2 | [F,A,]4 [E,B,]2 [B,,B,]2 | %3
 [E,B,]2 [C,C]2 [G,B,]2 [E,B,]2 | [F,B,]2 [F,=A,]2 [B,,B,]4 | [E,G,]4 [E,B,]2 [D,B,]2 | %6
 [C,G,]2 [G,,B,]2 [A,,A,]2 [B,,F,]2 | [F,A,]4 [E,B,]2 [B,,B,]2 | [E,B,]2 [C,C]2 [G,B,]2 [E,B,]2 | %9
 [F,B,]2 [F,=A,]2 [B,,B,]4 | z2 [B,,B,]2 [=A,,F,]2 [B,,B,]2 | [E,B,]2 [D,B,]2 [C,G,]2 [A,,C]2 | %12
 [B,,B,]2 [G,,B,]2 [A,,A,]2 [F,,A,]2 | B,4 (B,2 A,2) | [E,G,]8 |] %15
V:4
 x8 | x8 | x8 | x8 | x8 | x8 | x8 | x8 | x8 | x8 | x8 | x8 | x8 | (G,,2 A,,2) B,,4 | x8 |] %15

